local/share/icons/dracula-icons-main/symbolic/actions/align-horizontal-left-symbolic.svg

<?xml version="1.0" encoding="UTF-8"?>
<svg xmlns="http://www.w3.org/2000/svg" xmlns:xlink="http://www.w3.org/1999/xlink" width="16" height="16" viewBox="0 0 16 16">
<defs>
<filter id="filter-remove-color" x="0%" y="0%" width="100%" height="100%">
<feColorMatrix color-interpolation-filters="sRGB" values="0 0 0 0 1 0 0 0 0 1 0 0 0 0 1 0 0 0 1 0" />
</filter>
<mask id="mask-0">
<g filter="url(#filter-remove-color)">
<rect x="-1.6" y="-1.6" width="19.2" height="19.2" fill="rgb(0%, 0%, 0%)" fill-opacity="0.1"/>
</g>
</mask>
<clipPath id="clip-0">
<rect x="0" y="0" width="5" height="5"/>
</clipPath>
<g id="source-9622" clip-path="url(#clip-0)">
<path fill-rule="nonzero" fill="rgb(21.176471%, 21.176471%, 21.176471%)" fill-opacity="0.931" d="M 0.53125 1.058594 L 0.53125 1.851562 L 2.644531 1.851562 L 2.644531 1.058594 Z M 0.53125 2.644531 L 0.53125 3.441406 L 3.441406 3.441406 L 3.441406 2.644531 Z M 0.53125 2.644531 "/>
</g>
</defs>
<path fill-rule="nonzero" fill="rgb(21.176471%, 21.176471%, 21.176471%)" fill-opacity="1" d="M 0.265625 0 L 0.265625 4.234375 L 0.792969 4.234375 L 0.792969 3.703125 L 3.570312 3.703125 C 3.644531 3.703125 3.703125 3.644531 3.703125 3.570312 L 3.703125 2.515625 C 3.703125 2.480469 3.691406 2.445312 3.664062 2.421875 C 3.640625 2.394531 3.605469 2.382812 3.570312 2.382812 L 0.792969 2.382812 L 0.792969 2.117188 L 2.777344 2.117188 C 2.8125 2.117188 2.847656 2.101562 2.871094 2.078125 C 2.894531 2.054688 2.910156 2.019531 2.910156 1.984375 L 2.910156 0.925781 C 2.910156 0.851562 2.851562 0.792969 2.777344 0.792969 L 0.792969 0.792969 L 0.792969 0 Z M 0.792969 1.058594 L 2.644531 1.058594 L 2.644531 1.851562 L 0.792969 1.851562 Z M 0.792969 2.644531 L 3.441406 2.644531 L 3.441406 3.441406 L 0.792969 3.441406 Z M 0.792969 2.644531 "/>
<g mask="url(#mask-0)">
<use xlink:href="#source-9622"/>
</g>
</svg>

<svg xmlns="http://www.w3.org/2000/svg" width="16" height="16" viewBox="0 0 4.233 4.233"><path d="M.265 0v4.233h.529v-.529h2.778a.132.132 0 0 0 .132-.132V2.514a.132.132 0 0 0-.132-.133H.794v-.264h1.984a.132.132 0 0 0 .132-.133V.926a.132.132 0 0 0-.132-.132H.794V0h-.53zm.529 1.058h1.852v.794H.794v-.794zm0 1.588H3.44v.794H.794v-.794z" style="marker:none" fill="#363636"/><path d="M.53 1.058v.794h2.116v-.794zm0 1.588v.794h2.91v-.794z" opacity=".1" fill="#363636" fill-opacity=".931"/></svg>
